packages/core/src/svgs/step.svg

<svg width="24" height="24" viewBox="0 0 24 24" fill="none" xmlns="http://www.w3.org/2000/svg">
<g clip-path="url(#clip0_31_19367)">
<path d="M0 0H24V24H0V0Z" fill="url(#paint0_linear_31_19367)"/>
<path fill-rule="evenodd" clip-rule="evenodd" d="M18.8525 15.8563L18.8521 8.1506L11.9992 4.29346V12.0026L5.14722 15.858L12.0014 19.7143L18.8482 15.8615L18.8525 15.864V15.8593L18.8546 15.858L18.8525 15.8563Z" fill="#64C557"/>
<path d="M5.14282 8.15011L12.003 4.29297V12.0068L5.14282 15.864V8.15011Z" fill="#118AB2"/>
<path d="M12.0035 4.28564L18.8572 8.14193L16.7143 9.53393L9.85718 5.50064L12.0035 4.28564Z" fill="#00F8B7"/>
<path d="M16.7143 9.31895V11.9272L9.85718 8.03881V5.49609L16.7143 9.31895Z" fill="#09BD8E"/>
<path d="M9.85535 8.03857L16.7142 11.9163L14.1428 13.3661L7.28735 9.485L9.85535 8.03857Z" fill="#FFE3A3"/>
<path d="M14.1411 13.3663V15.9613L7.28564 11.9584V9.47998L14.1411 13.3663Z" fill="#FFBB1D"/>
<path d="M7.28611 11.9561L14.1428 15.9259L12.0013 17.1431L5.14282 13.2868L7.28611 11.9561Z" fill="#FF965E"/>
<path d="M12 17.1429V19.7143L5.14282 15.8546V13.2832L12 17.1429Z" fill="#D94C00"/>
<path d="M16.7161 9.32992L18.8572 8.1582V15.8716L16.7161 17.0613V9.32992Z" fill="#06D6A0"/>
<path d="M14.1406 13.3661L16.7142 11.9111V17.063L14.1406 18.4996V13.3661Z" fill="#FFD166"/>
<path d="M12 17.1413L14.1407 15.9229V18.5136L12 19.7127V17.1413Z" fill="#F3722C"/>
</g>
<defs>
<linearGradient id="paint0_linear_31_19367" x1="4.46486" y1="4.16229" x2="29.2059" y2="32.5787" gradientUnits="userSpaceOnUse">
<stop stop-color="#1A1E21"/>
<stop offset="1" stop-color="#06060A"/>
</linearGradient>
<clipPath id="clip0_31_19367">
<rect width="24" height="24" fill="white"/>
</clipPath>
</defs>
</svg>

<svg xmlns="http://www.w3.org/2000/svg" width="24" height="24" fill="none" viewBox="0 0 24 24"><g clip-path="url(#a)"><path fill="url(#b)" d="M0 0h24v24H0z"/><path fill="#64C557" fill-rule="evenodd" d="M18.853 15.856V8.151l-6.854-3.858v7.71l-6.852 3.855 6.854 3.856 6.847-3.852.005.002v-.005l.002-.001z" clip-rule="evenodd"/><path fill="#118AB2" d="m5.143 8.15 6.86-3.857v7.714l-6.86 3.857z"/><path fill="#00F8B7" d="m12.004 4.286 6.853 3.856-2.143 1.392L9.857 5.5z"/><path fill="#09BD8E" d="M16.714 9.319v2.608L9.857 8.04V5.496z"/><path fill="#FFE3A3" d="m9.855 8.039 6.86 3.877-2.572 1.45-6.856-3.881z"/><path fill="#FFBB1D" d="M14.141 13.366v2.595l-6.855-4.003V9.48z"/><path fill="#FF965E" d="m7.286 11.956 6.857 3.97L12 17.143l-6.858-3.856z"/><path fill="#D94C00" d="M12 17.143v2.571l-6.857-3.86v-2.57z"/><path fill="#06D6A0" d="m16.716 9.33 2.141-1.172v7.714l-2.14 1.19z"/><path fill="#FFD166" d="m14.14 13.366 2.574-1.455v5.152L14.141 18.5z"/><path fill="#F3722C" d="m12 17.141 2.14-1.218v2.59l-2.14 1.2z"/></g><defs><linearGradient id="b" x1="4.465" x2="29.206" y1="4.162" y2="32.579" gradientUnits="userSpaceOnUse"><stop stop-color="#1A1E21"/><stop offset="1" stop-color="#06060A"/></linearGradient><clipPath id="a"><path fill="#fff" d="M0 0h24v24H0z"/></clipPath></defs></svg>
